X: 2059
T: La Dolphin
%R: _
B: Henry Playford "Apollo's Banquet", London 1687 (5th Edition)
F: https://archive.org/details/apollosbanquetco01rugg
Z: 2017 John Chambers <jc:trillian.mit.edu>
M: 3/2
L: 1/8
K: Gm
% - - - - - - - - - -
zG |\
G3d c2d2 e3f | d3g  ^f2g2 a3b |\
a2d2 c2B2 A3c | B2 G4 (cd) B3A |\
A3d ^c2d2 e3f | g2 f4 (=ef) =e3d | d6- d4 :|
|: zb |\
a3g ^f2d2 g3f | =e3d c2f2 f3e |\
d2G2 A2B2 B3A | B3B f2d2 e3f |\
d3d g2e2 f3g | =e3e a2b2 a3g |\
^f2d2 b3a a3g | g6- g4 |]
% - - - - - - - - - -

%%sep 1 1 500
%%sep 1 1 500

